frontend/svgs/biz035.svg

<?xml version="1.0" encoding="UTF-8"?> <svg width="100px" height="100px" viewBox="0 0 100 100" version="1.1" xmlns="http://www.w3.org/2000/svg" xmlns:xlink="http://www.w3.org/1999/xlink"> <g id="35.-Stamp" stroke="none" stroke-width="1" fill="none" fill-rule="evenodd" stroke-linecap="round" stroke-linejoin="round"> <path d="M50.159975,87.3139771 C50.1599917,87.314136 50.16,87.3142155 50.16,87.3142155 L91.2772623,87.3142155 C92.9611907,87.3142155 94.32,85.9605695 94.32,84.2907626 L94.32,76.7821864 C94.32,71.2031367 89.7803685,66.6734283 84.1804492,66.6734283 L72.0216102,66.6734283 C59.2843302,66.6734283 61.1440204,58.2478868 61.1440204,51.1061079 C61.1440204,46.1716718 63.9093466,42.4930315 66.7358144,38.7015075 C70.1625877,34.8083393 72.24,29.7058492 72.24,24.119727 C72.24,11.940418 62.3647715,2.06011148 50.16,2 C37.9552285,2.05985559 28.08,11.9401621 28.08,24.1194711 C28.08,29.7055933 30.1574123,34.8080834 33.5841856,38.7012516 C36.4106534,42.4927757 39.1759796,46.1714159 39.1759796,51.105852 C39.1759796,58.2476309 41.0356698,66.6731724 28.2983898,66.6731724 L16.1395508,66.6731724 C10.5396315,66.6731724 6,71.2028808 6,76.7819305 L6,84.2905067 C6,85.9603137 7.35880928,87.3139596 9.04273769,87.3139596 L50.1599732,87.3139596 L50.159975,87.3139771 Z" id="Layer-1" stroke="#7B6247" stroke-width="4" fill="#7B6247"></path> <path d="M12,88 L88.2763636,88 L88.2763636,93.0526316 C88.2763636,95.8431229 86.014258,98.1052632 83.2273828,98.1052632 L17.0489808,98.1052632 C14.2605057,98.1052632 12,95.8374449 12,93.0526316 L12,88 Z" id="Layer-3" stroke="#7B6247" stroke-width="4" fill="#7B6247"></path> <path d="M13.5742393,67 L86.7447766,67 C91.1030884,68.1331399 94.32,72.0859946 94.32,76.7824423 L94.32,84.2910185 C94.32,85.9608254 92.9611907,87.3144714 91.2772623,87.3144714 L50.16,87.3144714 L50.159975,87.314233 L50.1599732,87.3142155 L9.04273769,87.3142155 C7.35880928,87.3142155 6,85.9605695 6,84.2907626 L6,76.7821864 C6,72.0860921 9.21642739,68.133479 13.5742393,67 Z" id="Layer-2" stroke="#957959" stroke-width="4" fill="#957959"></path> </g> </svg>

<svg width="100" height="100" xmlns="http://www.w3.org/2000/svg"><g fill="none" fill-rule="evenodd" stroke-linecap="round" stroke-linejoin="round" stroke-width="4"><path d="M50.16 87.314s0 0 0 0h41.117a3.03 3.03 0 003.043-3.023v-7.509c0-5.579-4.54-10.109-10.14-10.109H72.022c-12.738 0-10.878-8.425-10.878-15.567 0-4.934 2.765-8.613 5.592-12.404A21.994 21.994 0 0072.24 24.12c0-12.18-9.875-22.06-22.08-22.12-12.205.06-22.08 9.94-22.08 22.12A21.994 21.994 0 0033.584 38.7c2.827 3.792 5.592 7.47 5.592 12.405 0 7.142 1.86 15.567-10.878 15.567H16.14c-5.6 0-10.14 4.53-10.14 10.109v7.509a3.03 3.03 0 003.043 3.023H50.16zM12 88h76.276v5.053a5.052 5.052 0 01-5.049 5.052H17.05A5.054 5.054 0 0112 93.053V88z" stroke="#7B6247" fill="#7B6247"/><path d="M13.574 67h73.17c4.36 1.133 7.576 5.086 7.576 9.782v7.509a3.03 3.03 0 01-3.043 3.023H50.16h0H9.043A3.03 3.03 0 016 84.291v-7.509c0-4.696 3.216-8.649 7.574-9.782z" stroke="#957959" fill="#957959"/></g></svg>
